X:147
T:Ontario East Reel
R:reel
C:Bruce Osborne  --  May 1991
Z:abc by bosborne@kos.net
M:2/4
L:1/8
K:D
A,/B,/|DF/E/ D/F/A/F/|d/F/B/F/ A/F/D/F/|GB/G/ FA/F/|E/D/E/F/ E/G/F/E/|\
DF/E/ D/F/A/F/|d/F/B/F/ A/F/D/F/|GB/G/ FA/F/|E/D/C/E/ D:|\
K:A
|:C/D/|EF/E/ C/E/A/B/|c/e/c/A/ EA/c/|B/c/B/G/ E/G/B/G/|A/B/c/f/ eC/D/|\
EF/E/ C/E/A/B/|c/e/c/A/ EA/c/|B/c/B/G/ E/G/B/G/|A/c/B/G/ A:|
